svgs/qonqr.svg

<svg xmlns="http://www.w3.org/2000/svg" viewBox="0 0 192 192"><path d="M113.225 173.592a1432.275 1432.275 0 0 0-10.65-6.136L96 163.704v-24.541l4.353-2.489c2.393-1.37 12.02-6.887 21.392-12.26l17.039-9.771.095-24.83.096-24.831-21.49-12.297-21.489-12.297-21.485 12.296-21.486 12.297.096 24.832.095 24.831 16.875 9.668c9.281 5.318 17.324 9.964 17.873 10.325l.998.657v12.07c0 10.898-.057 12.048-.591 11.843-.325-.124-10.535-5.922-22.689-12.882a16437.673 16437.673 0 0 0-28.302-16.183l-6.205-3.527V52.843l32.182-18.421C81.057 24.29 95.746 16 96 16c.254 0 14.943 8.29 32.643 18.422l32.182 18.421v73.738l-21.393 12.236-21.392 12.235-.097 12.486c-.054 6.867-.221 12.475-.371 12.462-.15-.013-2.106-1.097-4.347-2.408Z"/></svg>

<svg
    xmlns="http://www.w3.org/2000/svg"
    viewBox="0 0 192 192"
    id="vector">
    <path
        id="path"
        d="M 113.225 173.592 C 110.984 172.281 106.191 169.519 102.575 167.456 L 96 163.704 L 96 139.163 L 100.353 136.674 C 102.746 135.304 112.373 129.787 121.745 124.414 L 138.784 114.643 L 138.879 89.813 L 138.975 64.982 L 117.485 52.685 L 95.996 40.388 L 74.511 52.684 L 53.025 64.981 L 53.121 89.813 L 53.216 114.644 L 70.091 124.312 C 79.372 129.63 87.415 134.276 87.964 134.637 L 88.962 135.294 L 88.962 147.364 C 88.962 158.262 88.905 159.412 88.371 159.207 C 88.046 159.083 77.836 153.285 65.682 146.325 C 53.529 139.364 40.793 132.082 37.38 130.142 L 31.175 126.615 L 31.175 52.843 L 63.357 34.422 C 81.057 24.29 95.746 16 96 16 C 96.254 16 110.943 24.29 128.643 34.422 L 160.825 52.843 L 160.825 126.581 L 139.432 138.817 L 118.04 151.052 L 117.943 163.538 C 117.889 170.405 117.722 176.013 117.572 176 C 117.422 175.987 115.466 174.903 113.225 173.592 Z"
        fill="#000000"
        stroke-width="12"/>
</svg>
